X: 6
T:I Won't Do The Work
M:6/8
L:1/8
C:Old Traditional Gaelic Song
Z:Toby A. Rider <darkrider1@earthlink.NET>
R:Jig
K:C
B |\
c2B AGE | c2B AGE | cE2 EDE | {E}G2 G3A |\
c2d e2a | age ded | c2A (B/A/G)E | A3- A2 :|
|: B |\
c2A c2d | e2a e2d | (e2A) c2d | e2 G3A |\
c2d e2a | age ded | c2A (B/A/G)E | A3- A2 :|
